storage/app/icons/phosphoricons/bold/google-cardboard-logo-bold.svg

<svg xmlns="http://www.w3.org/2000/svg" fill="currentColor" viewBox="0 0 256 256"><path d="M224 44H32a20 20 0 0 0-20 20v128a20 20 0 0 0 20 20h64a12 12 0 0 0 8.49-3.51L128 185l23.51 23.52A12 12 0 0 0 160 212h64a20 20 0 0 0 20-20V64a20 20 0 0 0-20-20m-4 144h-55l-22.83-22.83a20 20 0 0 0-28.28 0L91 188H36V68h184ZM82 160a34 34 0 1 0-34-34 34 34 0 0 0 34 34m0-44a10 10 0 1 1-10 10 10 10 0 0 1 10-10m92 44a34 34 0 1 0-34-34 34 34 0 0 0 34 34m0-44a10 10 0 1 1-10 10 10 10 0 0 1 10-10"/></svg>

<svg xmlns="http://www.w3.org/2000/svg" viewBox="0 0 256 256" fill="currentColor"><path d="M224,44H32A20,20,0,0,0,12,64V192a20,20,0,0,0,20,20H96a12,12,0,0,0,8.49-3.51L128,185l23.51,23.52A12,12,0,0,0,160,212h64a20,20,0,0,0,20-20V64A20,20,0,0,0,224,44Zm-4,144H165l-22.83-22.83a20,20,0,0,0-28.28,0L91,188H36V68H220ZM82,160a34,34,0,1,0-34-34A34,34,0,0,0,82,160Zm0-44a10,10,0,1,1-10,10A10,10,0,0,1,82,116Zm92,44a34,34,0,1,0-34-34A34,34,0,0,0,174,160Zm0-44a10,10,0,1,1-10,10A10,10,0,0,1,174,116Z"/></svg>
